outline/svg/view_agenda.svg

<svg xmlns="http://www.w3.org/2000/svg" width="24" height="24"><path fill="none" d="M0 0h24v24H0V0z"/><g fill="currentColor"><path d="M19 5v4H4V5h15m0 10v4H4v-4h15m1-12H3c-.55 0-1 .45-1 1v6c0 .55.45 1 1 1h17c.55 0 1-.45 1-1V4c0-.55-.45-1-1-1zm0 10H3c-.55 0-1 .45-1 1v6c0 .55.45 1 1 1h17c.55 0 1-.45 1-1v-6c0-.55-.45-1-1-1z"/></g></svg>

<?xml version="1.0" encoding="utf-8"?>
<!-- Generator: Adobe Illustrator 19.1.0, SVG Export Plug-In . SVG Version: 6.00 Build 0)  -->
<svg version="1.1" xmlns="http://www.w3.org/2000/svg" xmlns:xlink="http://www.w3.org/1999/xlink" x="0px" y="0px" width="24px"
	 height="24px" viewBox="0 0 24 24" enable-background="new 0 0 24 24" xml:space="preserve">
<g id="Bounding_Boxes">
	<g id="ui_x5F_spec_x5F_header_copy_3">
	</g>
	<path fill="none" d="M0,0h24v24H0V0z"/>
</g>
<g id="Outline" fill="currentColor">
	<g id="ui_x5F_spec_x5F_header">
	</g>
	<path d="M19,5v4H4V5H19 M19,15v4H4v-4H19 M20,3H3C2.45,3,2,3.45,2,4v6c0,0.55,0.45,1,1,1h17c0.55,0,1-0.45,1-1V4
		C21,3.45,20.55,3,20,3L20,3z M20,13H3c-0.55,0-1,0.45-1,1v6c0,0.55,0.45,1,1,1h17c0.55,0,1-0.45,1-1v-6C21,13.45,20.55,13,20,13
		L20,13z"/>
</g>
</svg>
